X: 5619
T: Buttered Peas
R: polka
M: 2/4
K: Amajor
|:ce ec|df f2|ce ec|dB B2|
ce ce|df df|ce B/c/d|cA A2:|
|:Ac ea|a/g/f/g/ af|ec cA|dB Bc|
Ac ea|ag af|ec d/c/B|cA A2:|

